X:1
T:Resting in Jesus’ Arms
T:Resting in Jesus’ Arms
T:Anthony Johnson Showalter
T:Ruth Adalyn Hearn Evilsizer, 1899
T:Public Domain Courtesy of the Cyber Hymnal™
T:Public Domain Courtesy of the Cyber Hymnal™
C:Anthony Johnson Showalter
Z:Public Domain
Z:Courtesy of the Cyber Hymnal™
%%score ( 1 2 ) ( 3 4 )
L:1/8
Q:1/4=100
M:4/4
K:G
V:1 treble 
V:2 treble 
V:3 bass 
V:4 bass 
V:1
 [DB]>[CA] | [B,G]2 [DA]2 [DB] [DG]2 [DA] | [EG]2 [CE]2 [B,D]2 [DG]>[DA] | %3
w: 1.~In the|arms of Je- sus I|sweet- ly rest, And my|
w: 2.~In the|arms of Je- sus my|cares de- part, For He|
w: 3.~In the|arms of Je- sus ’twas|love di- vine Made this|
w: 4.~In the|arms of Je- sus I’ll|sleep in peace When the|
 [GB]2 [FA]2 [GB] [Gd]2 [Ge] | [Gd]2 [GB]2 !fermata![FA]2 [GB]>[FA] | G2 [FA]2 [GB] [DG]2 [DA] | %6
w: soul re- pos- es up-|on His breast; As a|ten- der mo- ther her|
w: shares my sor- row and|cheers my heart; All my|hea- vy bur- dens He|
w: bless- èd shel- ter of|safe- ty mine; And I|ask no sweet- er a-|
w: cares and tri- als of|earth- life cease; He will|bear me up- ward on|
 [EG]2 [CE]2 [B,D]2 [DG]>[DA] | [GB] [Gd]2 G [GB]2 [FA]2 | G6 ||"^Refrain" [GB]>[Gc] | %10
w: child doth hold, I am|shel- tered in Je- sus’|fold.||
w: bears a- way, For I|take them to Him each|day.||
w: bid- ing place Than in|Je- sus’, my Lord’s em-|brace.||
w: wings of love, To those|man- sions pre- pared a-|bove.||
 [Gd] [GB]2 [Gd] [Ge]2 [Gd]2 | B6 [DG]>[DA] | [GB] G2 [Ge] [Gd]2 [GB]2 | [FA]6 [GB]>[FA] | %14
w: ||||
w: ||||
w: ||||
w: ||||
 G2 [FA]2 [GB] [DG]2 [DA] | [EG]2 [CE]2 [B,D]2 [DG]>[DA] | [GB] [Gd]2 G [GB]2 [FA]2 | G6 |] %18
w: ||||
w: ||||
w: ||||
w: ||||
V:2
 x2 | x8 | x8 | x8 | x8 | G2 x6 | x8 | x3 G x4 | G6 || x2 | x8 | (G2 G2 G2) x2 | x G2 x5 | x8 | %14
 G2 x6 | x8 | x3 G x4 | G6 |] %18
V:3
 G,>G, | G,2 [D,F,]2 G, [G,B,]2 [G,B,] | [C,C]2 [C,G,]2 [G,,G,]2 [G,B,]>[G,C] | %3
w: ~ ~|~ ~ ~ ~ ~|~ ~ ~ ~ ~|
 [G,D]2 [D,D]2 [G,D] [G,B,]2 [G,C] | [G,B,]2 [G,D]2 !fermata![D,D]2 [G,D]>[G,C] | %5
w: ~ ~ ~ ~ ~|~ ~ ~ ~ ~|
 [G,B,]2 [D,D]2 [G,D] [G,B,]2 [G,B,] | [C,C]2 [C,G,]2 [G,,G,]2 [G,B,]>[G,C] | %7
w: ~ ~ ~ ~ ~|~ ~ ~ ~ ~|
 [G,D] [G,B,]2 [G,B,] [D,D]2 [D,C]2 | [G,B,]6 || G,>[G,A,] | [G,B,] [G,D]2 [G,B,] [G,C]2 [G,B,]2 | %11
w: ~ ~ ~ ~ ~|~|I am|rest- ing in Je- sus’|
 ([G,D]2 [G,D]2 [G,D]2) [G,B,]>[G,C] | [G,D] [G,B,]2 [G,C] [G,B,]2 [G,D]2 | [D,D]6 [G,D]>[G,C] | %14
w: arms, * * And I|fear not the world’s a-|larms; Tho’ its|
 [G,B,]2 [D,D]2 [G,D] [G,B,]2 [G,B,] | [C,C]2 [C,G,]2 [G,,G,]2 [G,B,]>[G,C] | %16
w: storms as- sail me on|ev- ery side, In this|
 [G,D] [G,B,]2 [G,B,] [D,D]2 [D,C]2 | [G,,G,B,]6 |] %18
w: ref- uge my soul shall|hide.|
V:4
 G,>G, | G,2 G, x5 | x8 | x8 | x8 | x8 | x8 | x8 | x6 || G,3/2 x/ | x8 | x8 | x8 | x8 | x8 | x8 | %16
 x8 | x6 |] %18

